assets/Person mountain biking/Dark/Flat/person_mountain_biking_flat_dark.svg

<svg width="32" height="32" viewBox="0 0 32 32" fill="none" xmlns="http://www.w3.org/2000/svg">
<path d="M30 13.9519L25.6537 7.42491C22.7355 5.04436 19.3743 6.45228 18.1433 7.52274L10.5924 18.4213L8.31266 16.6916C6.99282 15.6917 5.13304 15.8117 3.95318 16.9915L2.00342 18.9513V29.95H30V13.9519Z" fill="#00D26A"/>
<path d="M24.1806 5.22292C23.1408 3.65311 20.841 3.63312 19.7712 5.18293L18.1414 7.53265L19.9611 6.62276C20.1711 6.52277 20.4211 6.57276 20.5611 6.75274L21.491 7.9326C21.7609 8.27256 22.2709 8.27256 22.5308 7.9326L23.4607 6.75274C23.6007 6.57276 23.8507 6.51277 24.0606 6.62276L25.6505 7.42266L24.1806 5.22292Z" fill="#D3D3D3"/>
<path d="M23.5108 27.8604L23.4908 27.8704C22.5709 28.4203 21.4311 28.4203 20.5112 27.8704L20.4812 27.8504C19.5613 27.3005 18.4114 27.3005 17.4916 27.8604C16.5717 28.4203 15.4218 28.4203 14.5019 27.8704L14.4819 27.8604C13.562 27.3105 12.4122 27.3105 11.4923 27.8704L11.4823 27.8804C10.5624 28.4403 9.41253 28.4403 8.49264 27.8904L8.46264 27.8704C7.54275 27.3205 6.39289 27.3205 5.473 27.8704L2.00342 30H30L26.4905 27.8504C25.5706 27.3105 24.4307 27.3105 23.5108 27.8604Z" fill="#A56953"/>
<path d="M17.6198 24.0801L17.4798 23.9801C17.2798 23.8401 17.1698 23.5901 17.2098 23.3401L17.5798 21.0401L18.9298 20.3301L19.6898 20.9001C19.8698 21.0401 19.9098 21.3001 19.7698 21.4801L17.8398 24.0401C17.7898 24.1201 17.6898 24.1301 17.6198 24.0801Z" fill="#533566"/>
<path d="M15.4699 14.9001L14.1399 15.6901C13.4699 16.0901 13.1299 16.8801 13.3199 17.6301C13.3199 17.6401 13.3199 17.6401 13.3299 17.6501C13.3899 17.8801 13.5299 18.0801 13.7299 18.2201L17.5999 21.0501L18.9499 20.3401L15.6199 17.5001L16.9599 16.7301L15.4699 14.9001Z" fill="#452829"/>
<path d="M18.3999 13.0601L15.1299 15.1001L16.2699 16.5201C16.3899 16.7901 16.8899 16.9901 17.3199 16.8101L20.5099 14.9701L18.3999 13.0601Z" fill="#636363"/>
<path d="M7.41284 13.7301C7.41284 12.5822 8.34192 11.6531 9.48984 11.6531H12.9898C13.1453 11.6531 13.2905 11.7304 13.3773 11.8593C13.464 11.9883 13.481 12.1519 13.4225 12.2959L11.0125 18.2259C10.9154 18.4648 10.643 18.5798 10.404 18.4827C10.1651 18.3856 10.0501 18.1132 10.1472 17.8742L12.296 12.5871H9.48984C8.85776 12.5871 8.34684 13.098 8.34684 13.7301C8.34684 14.3622 8.85776 14.8731 9.48984 14.8731C9.74776 14.8731 9.95684 15.0822 9.95684 15.3401C9.95684 15.598 9.74776 15.8071 9.48984 15.8071C8.34192 15.8071 7.41284 14.878 7.41284 13.7301Z" fill="#D3D3D3"/>
<path d="M7.87984 13.2632C8.13776 13.2632 8.34684 13.4723 8.34684 13.7302C8.34684 14.3623 8.85776 14.8732 9.48984 14.8732C9.74776 14.8732 9.95684 15.0823 9.95684 15.3402C9.95684 15.5981 9.74776 15.8072 9.48984 15.8072C8.34192 15.8072 7.41284 14.8781 7.41284 13.7302C7.41284 13.4723 7.62192 13.2632 7.87984 13.2632Z" fill="#433B6B"/>
<path d="M12 25.25C12 27.5972 10.0972 29.5 7.75 29.5C5.40279 29.5 3.5 27.5972 3.5 25.25C3.5 22.9028 5.40279 21 7.75 21C10.0972 21 12 22.9028 12 25.25ZM10.5 25.25C10.5 23.7312 9.26878 22.5 7.75 22.5C6.23122 22.5 5 23.7312 5 25.25C5 26.7688 6.23122 28 7.75 28C9.26878 28 10.5 26.7688 10.5 25.25Z" fill="#F3EEF8"/>
<path d="M28.1001 25.25C28.1001 27.5972 26.1973 29.5 23.8501 29.5C21.5029 29.5 19.6001 27.5972 19.6001 25.25C19.6001 22.9028 21.5029 21 23.8501 21C26.1973 21 28.1001 22.9028 28.1001 25.25ZM26.6001 25.25C26.6001 23.7312 25.3689 22.5 23.8501 22.5C22.3313 22.5 21.1001 23.7312 21.1001 25.25C21.1001 26.7688 22.3313 28 23.8501 28C25.3689 28 26.6001 26.7688 26.6001 25.25Z" fill="#F3EEF8"/>
<path d="M7.79004 20.4126C5.14255 20.4126 2.99634 22.5588 2.99634 25.2063C2.99634 27.8538 5.14255 30 7.79004 30C10.4375 30 12.5837 27.8538 12.5837 25.2063C12.5837 22.5588 10.4375 20.4126 7.79004 20.4126ZM4.02374 25.2063C4.02374 23.1262 5.70997 21.44 7.79004 21.44C9.87011 21.44 11.5563 23.1262 11.5563 25.2063C11.5563 27.2864 9.87011 28.9726 7.79004 28.9726C5.70997 28.9726 4.02374 27.2864 4.02374 25.2063Z" fill="#433B6B"/>
<path d="M23.8901 20.4126C21.2426 20.4126 19.0964 22.5588 19.0964 25.2063C19.0964 27.8538 21.2426 30 23.8901 30C26.5376 30 28.6838 27.8538 28.6838 25.2063C28.6838 22.5588 26.5376 20.4126 23.8901 20.4126ZM20.1238 25.2063C20.1238 23.1262 21.8101 21.44 23.8901 21.44C25.9702 21.44 27.6564 23.1262 27.6564 25.2063C27.6564 27.2864 25.9702 28.9726 23.8901 28.9726C21.8101 28.9726 20.1238 27.2864 20.1238 25.2063Z" fill="#433B6B"/>
<path d="M11.3662 17.4724C11.4725 17.2094 11.3455 16.91 11.0825 16.8037C10.8194 16.6974 10.52 16.8244 10.4137 17.0875L7.31369 24.7575C7.20738 25.0205 7.33443 25.3199 7.59746 25.4262C7.8605 25.5325 8.15992 25.4055 8.26623 25.1424L10.3618 19.9577L17.5822 25.3614C17.722 25.466 17.9055 25.4924 18.0692 25.4315C18.2329 25.3706 18.3544 25.2306 18.3918 25.06L19.8061 18.603L23.9772 25.1268C24.13 25.3658 24.4476 25.4357 24.6867 25.2829C24.9257 25.1301 24.9956 24.8124 24.8428 24.5734L20.0028 17.0034C19.8908 16.8282 19.6843 16.7378 19.4797 16.7744C19.2751 16.8109 19.1126 16.9671 19.0681 17.1702L17.5589 24.0607L10.76 18.9725L11.3662 17.4724Z" fill="#F8312F"/>
<path d="M24.28 23.9399L18.35 23.1599C17.35 23.0299 16.46 23.8099 16.46 24.8199C16.46 25.8299 17.35 26.6099 18.35 26.4799L24.28 25.6999C24.72 25.6399 25.05 25.2699 25.05 24.8199C25.05 24.3699 24.72 23.9899 24.28 23.9399Z" fill="#F9C23C"/>
<path d="M18.0701 25.8101C18.6113 25.8101 19.0501 25.3713 19.0501 24.8301C19.0501 24.2889 18.6113 23.8501 18.0701 23.8501C17.5288 23.8501 17.0901 24.2889 17.0901 24.8301C17.0901 25.3713 17.5288 25.8101 18.0701 25.8101Z" fill="white"/>
<path d="M14.7401 7.07983L16.4501 8.19983L15.3201 9.95983L13.5901 8.80983L14.7401 7.07983Z" fill="#452829"/>
<path d="M12.01 4.59995L11.09 5.11995C10.31 5.55995 10.04 6.55995 10.49 7.33995L10.72 7.72995C10.79 7.84995 10.83 7.99995 10.83 8.13995C10.82 8.57995 10.75 8.65995 10.83 8.81995C10.96 9.07995 11.22 9.00995 11.34 8.95995C11.38 8.94995 11.42 8.95995 11.44 8.98995C11.97 9.84995 12.48 10.3899 13.53 9.78995C14.17 9.41995 14.99 8.52995 14.85 7.60995L14.54 6.43995L14.24 5.19995C13.79 4.42995 12.79 4.14995 12.01 4.59995Z" fill="#573739"/>
<path d="M11.3101 7.94985C11.2501 7.97985 11.1801 7.94985 11.1401 7.88985C11.1401 7.88985 11.1401 7.88985 11.1401 7.87985C10.9901 7.61985 11.1301 7.34985 11.3401 7.22985C11.5501 7.10985 11.8601 7.12985 12.0101 7.38985C12.0101 7.38985 12.0101 7.38985 12.0101 7.39985C12.0501 7.46985 12.0301 7.53985 11.9801 7.56985L11.3101 7.94985Z" fill="white"/>
<path d="M11.2201 7.98996C11.1901 7.95996 11.1601 7.92996 11.1401 7.87996C11.0301 7.69996 11.0601 7.46996 11.2101 7.38996C11.3601 7.30996 11.5601 7.38996 11.6701 7.57996C11.6901 7.61996 11.7101 7.66996 11.7201 7.70996L11.2201 7.98996Z" fill="#7D4533"/>
<path d="M11.3099 7.93995C11.2699 7.91995 11.2299 7.87995 11.2099 7.83995C11.1499 7.72995 11.1699 7.60995 11.2499 7.55995C11.3299 7.50995 11.4499 7.55995 11.5099 7.66995C11.5399 7.71995 11.5499 7.76995 11.5499 7.80995L11.3099 7.93995Z" fill="black"/>
<path d="M11.228 7.74048C11.2568 7.72403 11.2623 7.6796 11.2404 7.64125C11.2184 7.6029 11.1773 7.58515 11.1486 7.6016C11.1198 7.61805 11.1143 7.66248 11.1362 7.70083C11.1582 7.73918 11.1993 7.75693 11.228 7.74048Z" fill="white"/>
<path d="M12.3095 8.47293C12.3686 8.46156 12.4257 8.50025 12.437 8.55934C12.4986 8.87961 12.2889 9.18353 11.9745 9.25608C11.9159 9.26961 11.8574 9.23305 11.8439 9.17442C11.8303 9.11579 11.8669 9.05729 11.9255 9.04376C12.1312 8.99631 12.2615 8.80022 12.223 8.60049C12.2117 8.5414 12.2504 8.48429 12.3095 8.47293Z" fill="#290118"/>
<path d="M15.03 6.59988C15.03 6.59988 15.5 5.62988 14.57 4.62988C14.37 4.71988 14.44 4.74988 14.22 4.75988C13.52 4.78988 12.83 4.81988 12.13 4.84988C12.09 4.88988 12.05 4.93988 12.01 4.97988C11.5 5.43988 11.01 5.92988 10.54 6.43988C10.79 6.41988 11.1 6.30988 11.48 6.08988C12.68 5.39988 13.09 6.12988 13.09 6.12988C13.09 6.12988 13.51 5.72988 14.35 7.19988C14.78 7.95988 15.27 7.45988 15.54 7.30988C15.99 7.05988 15.62 6.25988 15.03 6.59988Z" fill="black"/>
<path d="M13.1201 6.14994C13.4601 5.99994 13.8401 6.15994 13.9901 6.49994C14.1301 6.83994 13.9701 7.21994 13.6401 7.36994L13.1201 6.14994Z" fill="#573739"/>
<path d="M17.6999 8.2001C17.3699 8.0701 16.8599 7.9501 16.3399 8.1501C15.0299 8.6501 14.9099 9.5801 14.9099 9.5801C14.9099 9.5801 14.6899 10.7401 16.1999 11.8301C16.2099 11.8301 17.1199 12.7601 17.7799 14.1801C17.9099 14.4601 18.2499 14.5601 18.5099 14.4101L22.0499 12.4101C20.5399 9.7001 18.1399 8.2601 17.6999 8.2001Z" fill="#FF6723"/>
<path d="M21.9 12.1499L22.14 12.9299C22.57 14.1599 22.24 15.2099 21.15 15.8399L17.22 18.5499L17.26 24.0599L15.88 23.4099L15.1 18.6499C14.99 17.8199 15.26 16.9699 15.85 16.3699L15.86 16.3599L18.91 14.0999L21.9 12.1499Z" fill="#573739"/>
<path d="M12.8755 5.96564C12.9995 5.91898 13.1377 5.9816 13.1844 6.10552L14.3744 9.26552C14.4211 9.38943 14.3584 9.52771 14.2345 9.57438C14.1106 9.62104 13.9723 9.55842 13.9257 9.4345L12.7357 6.2745C12.689 6.15059 12.7516 6.01231 12.8755 5.96564Z" fill="#433B6B"/>
<path d="M12.03 3.18995L10.6 3.88995C9.65997 4.34995 9.25997 5.48995 9.71997 6.42995L10.13 7.25995C10.23 7.45995 10.46 7.53995 10.66 7.43995L14.8 5.41995C15 5.31995 15.08 5.08995 14.98 4.88995L14.57 4.05995C14.12 3.11995 12.98 2.72995 12.03 3.18995Z" fill="#00A6ED"/>
<path d="M12.7899 4.95001L11.5299 5.57001C11.3699 5.64001 11.2999 5.84001 11.3799 6.00001C11.4599 6.16001 11.6499 6.23001 11.8099 6.15001L13.0699 5.54001C13.2299 5.46001 13.2999 5.27001 13.2199 5.11001C13.1399 4.94001 12.9499 4.87001 12.7899 4.95001Z" fill="#007ACF"/>
<path d="M18.0466 14.6605L17.45 13.65L21.31 11.25C21.5533 11.4933 21.8654 12.0661 21.9429 12.2119C22.0434 12.3625 22.2988 12.7794 22.4799 13.3699C22.6099 13.8099 22.5599 14.5199 22.3499 14.9599C22.1599 15.3599 21.9099 15.7299 21.6199 16.0599L19.9499 17.9799C19.5499 18.4799 18.7999 18.5099 18.3699 18.0299L16.4199 15.9299L18.0466 14.6605Z" fill="#9B9B9B"/>
<path d="M13.47 25.2499V25.0799C13.46 24.8299 13.6 24.5999 13.82 24.4899L15.88 23.3999L17.26 24.0499V24.9999C17.26 25.2299 17.07 25.4199 16.84 25.4199L13.64 25.4099C13.54 25.4099 13.47 25.3399 13.47 25.2499Z" fill="#533566"/>
<path d="M16.7901 8.85006C16.2801 8.60006 15.6601 8.80006 15.4001 9.31006C15.3901 9.33006 14.2501 11.5401 12.0601 12.4601C11.3201 12.7701 9.89009 13.0301 9.41009 13.1101C9.20009 13.1401 8.75009 13.3701 8.60009 13.5101C8.60009 13.5101 7.81009 14.3001 7.79009 14.9001C7.77009 15.5001 8.76009 15.8001 8.76009 15.8001C8.76009 15.8001 9.10009 15.9101 9.19009 15.4001C9.23009 15.2001 9.42009 15.2101 9.70009 15.1601C9.70009 15.1601 11.7501 14.8301 12.8501 14.3701C15.7701 13.1501 17.1901 10.3501 17.2401 10.2301C17.5101 9.73006 17.3001 9.11006 16.7901 8.85006Z" fill="#573739"/>
</svg>

<svg xmlns="http://www.w3.org/2000/svg" width="32" height="32" fill="none"><path fill="#00D26A" d="m30 13.952-4.346-6.527c-2.919-2.38-6.28-.973-7.51.098L10.591 18.42l-2.28-1.73c-1.32-1-3.179-.88-4.359.3l-1.95 1.96V29.95H30V13.952Z"/><path fill="#D3D3D3" d="M24.18 5.223c-1.04-1.57-3.339-1.59-4.409-.04l-1.63 2.35 1.82-.91c.21-.1.46-.05.6.13l.93 1.18c.27.34.78.34 1.04 0l.93-1.18c.14-.18.39-.24.6-.13l1.59.8-1.47-2.2Z"/><path fill="#A56953" d="m23.51 27.86-.02.01c-.92.55-2.059.55-2.979 0l-.03-.02c-.92-.55-2.07-.55-2.99.01-.92.56-2.07.56-2.99.01l-.02-.01c-.919-.55-2.069-.55-2.989.01l-.01.01c-.92.56-2.07.56-2.99.01l-.03-.02c-.92-.55-2.07-.55-2.989 0L2.003 30H30l-3.51-2.15a2.92 2.92 0 0 0-2.98.01Z"/><path fill="#533566" d="m17.62 24.08-.14-.1a.659.659 0 0 1-.27-.64l.37-2.3 1.35-.71.76.57c.18.14.22.4.08.58l-1.93 2.56c-.05.08-.15.09-.22.04Z"/><path fill="#452829" d="m15.47 14.9-1.33.79c-.67.4-1.01 1.19-.82 1.94 0 .01 0 .01.01.02.06.23.2.43.4.57l3.87 2.83 1.35-.71-3.33-2.84 1.34-.77-1.49-1.83Z"/><path fill="#636363" d="m18.4 13.06-3.27 2.04 1.14 1.42c.12.27.62.47 1.05.29l3.19-1.84-2.11-1.91Z"/><path fill="#D3D3D3" d="M7.413 13.73c0-1.148.929-2.077 2.077-2.077h3.5a.467.467 0 0 1 .432.643l-2.41 5.93a.467.467 0 0 1-.865-.352l2.149-5.287H9.49a1.142 1.142 0 1 0 0 2.286.467.467 0 0 1 0 .934 2.076 2.076 0 0 1-2.077-2.077Z"/><path fill="#433B6B" d="M7.88 13.263c.258 0 .467.21.467.467 0 .632.51 1.143 1.143 1.143a.467.467 0 0 1 0 .934 2.076 2.076 0 0 1-2.077-2.077c0-.258.209-.467.467-.467Z"/><path fill="#F3EEF8" d="M12 25.25a4.25 4.25 0 1 1-8.5 0 4.25 4.25 0 0 1 8.5 0Zm-1.5 0a2.75 2.75 0 1 0-5.5 0 2.75 2.75 0 0 0 5.5 0ZM28.1 25.25a4.25 4.25 0 1 1-8.5 0 4.25 4.25 0 0 1 8.5 0Zm-1.5 0a2.75 2.75 0 1 0-5.5 0 2.75 2.75 0 0 0 5.5 0Z"/><path fill="#433B6B" d="M7.79 20.413a4.794 4.794 0 1 0 0 9.587 4.794 4.794 0 0 0 0-9.587Zm-3.766 4.793a3.766 3.766 0 1 1 7.532 0 3.766 3.766 0 0 1-7.532 0ZM23.89 20.413a4.794 4.794 0 1 0 0 9.587 4.794 4.794 0 0 0 0-9.587Zm-3.766 4.793a3.766 3.766 0 1 1 7.532 0 3.766 3.766 0 0 1-7.532 0Z"/><path fill="#F8312F" d="M11.366 17.472a.514.514 0 1 0-.952-.385l-3.1 7.67a.514.514 0 1 0 .952.385l2.096-5.184 7.22 5.403a.514.514 0 0 0 .81-.301l1.414-6.457 4.171 6.524a.514.514 0 0 0 .866-.554l-4.84-7.57a.514.514 0 0 0-.935.167l-1.51 6.89-6.798-5.087.606-1.5Z"/><path fill="#F9C23C" d="m24.28 23.94-5.93-.78c-1-.13-1.89.65-1.89 1.66 0 1.01.89 1.79 1.89 1.66l5.93-.78c.44-.06.77-.43.77-.88s-.33-.83-.77-.88Z"/><path fill="#fff" d="M18.07 25.81a.98.98 0 1 0 0-1.96.98.98 0 0 0 0 1.96Z"/><path fill="#452829" d="m14.74 7.08 1.71 1.12-1.13 1.76-1.73-1.15 1.15-1.73Z"/><path fill="#573739" d="m12.01 4.6-.92.52a1.62 1.62 0 0 0-.6 2.22l.23.39c.07.12.11.27.11.41-.01.44-.08.52 0 .68.13.26.39.19.51.14.04-.01.08 0 .1.03.53.86 1.04 1.4 2.09.8.64-.37 1.46-1.26 1.32-2.18l-.31-1.17-.3-1.24a1.644 1.644 0 0 0-2.23-.6Z"/><path fill="#fff" d="M11.31 7.95c-.06.03-.13 0-.17-.06v-.01c-.15-.26-.01-.53.2-.65.21-.12.52-.1.67.16v.01c.04.07.02.14-.03.17l-.67.38Z"/><path fill="#7D4533" d="M11.22 7.99a.313.313 0 0 1-.08-.11c-.11-.18-.08-.41.07-.49.15-.08.35 0 .46.19.02.04.04.09.05.13l-.5.28Z"/><path fill="#000" d="M11.31 7.94a.241.241 0 0 1-.1-.1c-.06-.11-.04-.23.04-.28.08-.05.2 0 .26.11.03.05.04.1.04.14l-.24.13Z"/><path fill="#fff" d="M11.228 7.74c.029-.016.034-.06.012-.099-.022-.038-.063-.056-.091-.04-.03.017-.035.061-.013.1.022.038.063.056.092.04Z"/><path fill="#290118" d="M12.31 8.473a.109.109 0 0 1 .127.086.602.602 0 0 1-.462.697.109.109 0 1 1-.05-.212.384.384 0 0 0 .298-.444.109.109 0 0 1 .086-.127Z"/><path fill="#000" d="M15.03 6.6s.47-.97-.46-1.97c-.2.09-.13.12-.35.13l-2.09.09c-.04.04-.08.09-.12.13-.51.46-1 .95-1.47 1.46.25-.02.56-.13.94-.35 1.2-.69 1.61.04 1.61.04s.42-.4 1.26 1.07c.43.76.92.26 1.19.11.45-.25.08-1.05-.51-.71Z"/><path fill="#573739" d="M13.12 6.15c.34-.15.72.01.87.35.14.34-.02.72-.35.87l-.52-1.22Z"/><path fill="#FF6723" d="M17.7 8.2c-.33-.13-.84-.25-1.36-.05-1.31.5-1.43 1.43-1.43 1.43s-.22 1.16 1.29 2.25c.01 0 .92.93 1.58 2.35.13.28.47.38.73.23l3.54-2C20.54 9.7 18.14 8.26 17.7 8.2Z"/><path fill="#573739" d="m21.9 12.15.24.78c.43 1.23.1 2.28-.99 2.91l-3.93 2.71.04 5.51-1.38-.65-.78-4.76c-.11-.83.16-1.68.75-2.28l.01-.01 3.05-2.26 2.99-1.95Z"/><path fill="#433B6B" d="M12.876 5.966a.24.24 0 0 1 .308.14l1.19 3.16a.24.24 0 0 1-.448.168l-1.19-3.16a.24.24 0 0 1 .14-.308Z"/><path fill="#00A6ED" d="m12.03 3.19-1.43.7c-.94.46-1.34 1.6-.88 2.54l.41.83c.1.2.33.28.53.18l4.14-2.02c.2-.1.28-.33.18-.53l-.41-.83c-.45-.94-1.59-1.33-2.54-.87Z"/><path fill="#007ACF" d="m12.79 4.95-1.26.62c-.16.07-.23.27-.15.43.08.16.27.23.43.15l1.26-.61a.32.32 0 0 0 .15-.43.317.317 0 0 0-.43-.16Z"/><path fill="#9B9B9B" d="m18.047 14.66-.597-1.01 3.86-2.4c.243.243.555.816.633.962.1.15.356.567.537 1.158.13.44.08 1.15-.13 1.59-.19.4-.44.77-.73 1.1l-1.67 1.92c-.4.5-1.15.53-1.58.05l-1.95-2.1 1.627-1.27Z"/><path fill="#533566" d="M13.47 25.25v-.17c-.01-.25.13-.48.35-.59l2.06-1.09 1.38.65V25c0 .23-.19.42-.42.42l-3.2-.01c-.1 0-.17-.07-.17-.16Z"/><path fill="#573739" d="M16.79 8.85c-.51-.25-1.13-.05-1.39.46-.01.02-1.15 2.23-3.34 3.15-.74.31-2.17.57-2.65.65-.21.03-.66.26-.81.4 0 0-.79.79-.81 1.39-.02.6.97.9.97.9s.34.11.43-.4c.04-.2.23-.19.51-.24 0 0 2.05-.33 3.15-.79 2.92-1.22 4.34-4.02 4.39-4.14.27-.5.06-1.12-.45-1.38Z"/></svg>
